communes/1122.svg

<?xml version="1.0" encoding="UTF-8"?>
<svg width="520" height="585" version="1.1" viewBox="0 0 100 112.5" xmlns="http://www.w3.org/2000/svg" xmlns:cc="http://creativecommons.org/ns#" xmlns:dc="http://purl.org/dc/elements/1.1/" xmlns:rdf="http://www.w3.org/1999/02/22-rdf-syntax-ns#">
<metadata>
<rdf:RDF>
<cc:Work rdf:about="">
<dc:format>image/svg+xml</dc:format>
<dc:type rdf:resource="http://purl.org/dc/dcmitype/StillImage"/>
</cc:Work>
</rdf:RDF>
</metadata>
<title>Wappen von Altbüron</title>
<desc>Wappen der Schweizer Gemeinde Altbüron, Kanton Luzern</desc>
<g fill="#00901e" stroke="#000" stroke-linejoin="round">
<path d="m1 1v61.5a49 49 0 0 0 98 0v-61.5z" fill="#fff" stroke-width="2"/>
<path d="m50 48 40.773 40.773a48.5 48.5 0 0 1-81.546 0" fill="#e2001a"/>
<path d="m50 111c-42-1-20-35-7-14-10-23 24-23 14 0 13-21 35 13-7 14"/>
<path d="m50 48-40.773 40.773a48.5 48.5 0 0 1-5.688-12.312l40.261-40.261a10 9.5 0 1 1-3.09-16.49 10 10 0 1 1 18.58 0 10 9.5 0 1 1-3.09 16.49l40.261 40.261a48.5 48.5 0 0 1-5.688 12.312z"/>
</g>
</svg>

<?xml version="1.0" encoding="UTF-8" standalone="no"?>
<svg
   xmlns:dc="http://purl.org/dc/elements/1.1/"
   xmlns:cc="http://creativecommons.org/ns#"
   xmlns:rdf="http://www.w3.org/1999/02/22-rdf-syntax-ns#"
   xmlns:svg="http://www.w3.org/2000/svg"
   xmlns="http://www.w3.org/2000/svg"
   xmlns:sodipodi="http://sodipodi.sourceforge.net/DTD/sodipodi-0.dtd"
   xmlns:inkscape="http://www.inkscape.org/namespaces/inkscape"
   version="1.1"
   width="520"
   height="585"
   viewBox="0,0 100,112.5"
   id="svg16"
   sodipodi:docname="1122.svg">
  <metadata
     id="metadata22">
    <rdf:RDF>
      <cc:Work
         rdf:about="">
        <dc:format>image/svg+xml</dc:format>
        <dc:type
           rdf:resource="http://purl.org/dc/dcmitype/StillImage" />
      </cc:Work>
    </rdf:RDF>
  </metadata>
  <defs
     id="defs20" />
  <sodipodi:namedview
     pagecolor="#ffffff"
     bordercolor="#666666"
     borderopacity="1"
     objecttolerance="10"
     gridtolerance="10"
     guidetolerance="10"
     inkscape:pageopacity="0"
     inkscape:pageshadow="2"
     inkscape:window-width="640"
     inkscape:window-height="480"
     id="namedview18" />
  <title
     id="title2">Wappen von Altbüron</title>
  <desc
     id="desc4">Wappen der Schweizer Gemeinde Altbüron, Kanton Luzern</desc>
  <g
     stroke="black"
     stroke-width="1"
     stroke-linejoin="round"
     fill="#00901e"
     id="g14">
    <path
       d="M 1,1 V 62.5 a 49,49 0 0,0 98,0 V 1 z"
       stroke-width="2"
       fill="white"
       id="path6" />
    <path
       d="M 50,48 L 90.773,88.773 a 48.5,48.5 0 0,1 -81.546,0"
       fill="#e2001a"
       id="path8" />
    <path
       d="M 50,111 C 8,110 30,76 43,97 33,74 67,74 57,97 70,76 92,110 50,111"
       id="path10" />
    <path
       d="M 50,48 L 9.227,88.773 A 48.5,48.5 0 0,1 3.539,76.461 L 43.8,36.2 A 10,9.5 0 1,1 40.71,19.71 10,10 0 1,1 59.29,19.71 10,9.5 0 1,1 56.2,36.2 L 96.461,76.461 A 48.5,48.5 0 0,1 90.773,88.773 z"
       id="path12" />
  </g>
</svg>
